X:22
T:Three Jolly Sheepskins
M:4/4
L:1/8
P:AAABBBAABBBAABBABAABBAB
K:G
P:A
"G"GABc d2 d2 | "C"c2 Ac BA G2 |"G"GABc d2 d2 | "C"c2 AF G4 |
"G"GABc d2 d2 |"C"c2 Ac BA G2 |"G"GABc d2 d2 | "C"c2 AF G4 :|
P:B
|:"D7" A2 DD A2 DD | "C"c2 c2 BcdB |"D7"A2 DD A2 DD | "C"c2 BA G4 |
"D7"A2 DD A2 DD| "C"c2 c2 BcdB |"D7"A2 DD A2 DD | "C"c2 BA G4 :|

